24x24/apps/net.bartkessels.getit.svg

<svg height="24" width="24" xmlns="http://www.w3.org/2000/svg"><rect height="6" opacity=".2" rx="1" transform="scale(-1 1)" width="10.5" x="-17.5" y="13.5"/><rect height="6" opacity=".2" rx="1" width="10.5" x="6.5" y="4.5"/><rect fill="#2c6de3" height="6" rx="1" transform="scale(-1 1)" width="10.5" x="-17.5" y="13"/><path d="m8 13c-.554 0-1 .446-1 1v.5c0-.554.446-1 1-1h8.5c.554 0 1 .446 1 1v-.5c0-.554-.446-1-1-1z" fill="#f4f4f7" opacity=".1"/><rect fill="#53990f" height="6" rx="1" width="10.5" x="6.5" y="4"/><path d="m7.5 4c-.554 0-1 .446-1 1v.5c0-.554.446-1 1-1h8.5c.554 0 1 .446 1 1v-.5c0-.554-.446-1-1-1z" fill="#f4f4f7" opacity=".1"/><path d="m15.943 11.5a.916 1.023 0 0 1 .431.137l3.084 1.988 3.084 1.989a.916 1.023 0 0 1 0 1.772l-3.084 1.988-3.084 1.989a.916 1.023 0 0 1 -1.374-.886v-7.954a.916 1.023 0 0 1 .943-1.023z" opacity=".2"/><path d="m15.943 11a.916 1.023 0 0 1 .431.137l3.084 1.988 3.084 1.989a.916 1.023 0 0 1 0 1.772l-3.084 1.988-3.084 1.989a.916 1.023 0 0 1 -1.374-.886v-7.954a.916 1.023 0 0 1 .943-1.023z" fill="#3ba4fa"/><path d="m8.057 2.5a.916 1.023 0 0 0 -.431.137l-3.084 1.988-3.084 1.989a.916 1.023 0 0 0 0 1.772l3.084 1.988 3.084 1.989a.916 1.023 0 0 0 1.374-.886v-7.954a.916 1.023 0 0 0 -.943-1.023z" opacity=".2"/><path d="m8.057 2a.916 1.023 0 0 0 -.431.137l-3.084 1.988-3.084 1.989a.916 1.023 0 0 0 0 1.772l3.084 1.988 3.084 1.989a.916 1.023 0 0 0 1.374-.886v-7.954a.916 1.023 0 0 0 -.943-1.023z" fill="#88d216"/><path d="m15.942 11a.916 1.023 0 0 0 -.942 1.023v.5a.916 1.023 0 0 1 .943-1.023.916 1.023 0 0 1 .431.138l3.084 1.987 3.084 1.988a.916 1.023 0 0 1 .43.636.916 1.023 0 0 0 -.43-1.136l-3.084-1.988-3.084-1.987a.916 1.023 0 0 0 -.43-.138.916 1.023 0 0 1 -.002 0zm-7.885-9a.916 1.023 0 0 0 -.431.138l-3.084 1.987-3.084 1.988a.916 1.023 0 0 0 -.43 1.136.916 1.023 0 0 1 .43-.636l3.084-1.988 3.084-1.987a.916 1.023 0 0 1 .43-.138.916 1.023 0 0 1 .944 1.023v-.5a.916 1.023 0 0 0 -.943-1.023z" fill="#f4f4f7" opacity=".2"/></svg>

<svg xmlns="http://www.w3.org/2000/svg" width="24" height="24" version="1"><rect style="opacity:.2" width="10.5" height="6" x="-17.5" y="13.5" rx="1" ry="1" transform="scale(-1 1)"/><rect style="opacity:.2" width="10.5" height="6" x="6.5" y="4.5" rx="1" ry="1"/><rect style="fill:#2c6de3" width="10.5" height="6" x="-17.5" y="13" rx="1" ry="1" transform="scale(-1 1)"/><path style="fill:#f4f4f7;opacity:.1" d="M8 13c-.554 0-1 .446-1 1v.5c0-.554.446-1 1-1h8.5c.554 0 1 .446 1 1V14c0-.554-.446-1-1-1z"/><rect style="fill:#53990f" width="10.5" height="6" x="6.5" y="4" rx="1" ry="1"/><path style="fill:#f4f4f7;opacity:.1" d="M7.5 4c-.554 0-1 .446-1 1v.5c0-.554.446-1 1-1H16c.554 0 1 .446 1 1V5c0-.554-.446-1-1-1z"/><path style="opacity:.2" d="M15.943 11.5a.916 1.023 0 0 1 .431.137l3.084 1.988 3.084 1.989a.916 1.023 0 0 1 0 1.772l-3.084 1.988-3.084 1.989A.916 1.023 0 0 1 15 20.477v-7.954a.916 1.023 0 0 1 .943-1.023z"/><path style="fill:#3ba4fa" d="M15.943 11a.916 1.023 0 0 1 .431.137l3.084 1.988 3.084 1.989a.916 1.023 0 0 1 0 1.772l-3.084 1.988-3.084 1.989A.916 1.023 0 0 1 15 19.977v-7.954A.916 1.023 0 0 1 15.943 11z"/><path style="opacity:.2" d="M8.057 2.5a.916 1.023 0 0 0-.431.137L4.542 4.625 1.458 6.614a.916 1.023 0 0 0 0 1.772l3.084 1.988 3.084 1.989A.916 1.023 0 0 0 9 11.477V3.523A.916 1.023 0 0 0 8.057 2.5z"/><path style="fill:#88d216" d="M8.057 2a.916 1.023 0 0 0-.431.137L4.542 4.125 1.458 6.114a.916 1.023 0 0 0 0 1.772l3.084 1.988 3.084 1.989A.916 1.023 0 0 0 9 10.977V3.023A.916 1.023 0 0 0 8.057 2z"/><path style="fill:#f4f4f7;opacity:.2" d="M15.942 11A.916 1.023 0 0 0 15 12.023v.5a.916 1.023 0 0 1 .943-1.023.916 1.023 0 0 1 .431.138l3.084 1.987 3.084 1.988a.916 1.023 0 0 1 .43.636.916 1.023 0 0 0-.43-1.136l-3.084-1.988-3.084-1.987a.916 1.023 0 0 0-.43-.138.916 1.023 0 0 1-.002 0zM8.057 2a.916 1.023 0 0 0-.431.138L4.542 4.125 1.458 6.113a.916 1.023 0 0 0-.43 1.136.916 1.023 0 0 1 .43-.636l3.084-1.988 3.084-1.987a.916 1.023 0 0 1 .43-.138A.916 1.023 0 0 1 9 3.523v-.5A.916 1.023 0 0 0 8.057 2z"/></svg>
